app/dist/common/images/vamos-on-nm.svg

<svg fill="none" height="18" width="18" xmlns="http://www.w3.org/2000/svg" xmlns:xlink="http://www.w3.org/1999/xlink"><linearGradient id="a" gradientUnits="userSpaceOnUse" x1="8.552" x2="12.15" y1="8.203" y2="12.943"><stop offset="0" stop-color="#b2b3b3"/><stop offset=".264" stop-color="#858482"/><stop offset="1" stop-color="#41433d"/></linearGradient><path d="m0 0h18v18h-18z" fill="#ed1b24"/><g clip-rule="evenodd" fill-rule="evenodd"><path d="m9 3c2.212 0 4 1.948 4 4.357 0 .79-.198 1.528-.527 2.174l-3.473 6.469-3.445-6.428a4.669 4.669 0 0 1 -.555-2.215c0-2.41 1.788-4.357 4-4.357z" fill="#d8d9dd"/><path d="m12 10.406-1.576 2.94c.055-1.514-.018-4.65-2.424-4.782-.015-.195.478-.175 1.241-.063.817.113 1.887.574 2.759 1.905z" fill="url(#a)"/><path d="m9 4.083c1.657 0 3 1.326 3 2.962 0 1.635-1.343 2.96-3 2.96s-3-1.325-3-2.959c0-1.636 1.334-2.962 3-2.962z" fill="#6eb0c1"/><path d="m11.939 6.424-.939-.737-.606.617-.944-1.234-2.45 1.543-.5-.555-.44.335a3.32 3.32 0 0 0 -.06.652c0 1.65 1.342 2.96 3 2.96 1.656 0 2.998-1.31 2.998-2.96a2.484 2.484 0 0 0 -.06-.621z" fill="#5f9038"/><path d="m9.664 5.348c0 .306-.064.653-.562 1.347a.452.452 0 0 0 -.102.293c.028.442.993.645 1 1.016 0 .021-.029.03-.081.028-.39-.012-1.712-.594-1.919-.494l-.484-1.238 1.933-1.23z" fill="#3e6429"/><path d="m8 5.07c.551 0 1 .447 1 .994 0 .183-.051.345-.133.497l-.867 1.47-.857-1.47a.975.975 0 0 1 -.143-.507.99.99 0 0 1 1-.984z" fill="#ededed"/></g></svg>

<!-- by TradingView --><svg width="18" height="18" fill="none" xmlns="http://www.w3.org/2000/svg"><path fill="#ED1B24" d="M0 0h18v18H0z"/><path fill-rule="evenodd" clip-rule="evenodd" d="M9 3c2.212 0 4 1.948 4 4.357 0 .79-.198 1.528-.527 2.174L9 16 5.555 9.572A4.669 4.669 0 0 1 5 7.357C5 4.947 6.788 3 9 3Z" fill="#D8D9DD"/><path fill-rule="evenodd" clip-rule="evenodd" d="m12 10.406-1.576 2.94c.055-1.514-.018-4.65-2.424-4.782-.015-.195.478-.175 1.241-.063.817.113 1.887.574 2.759 1.905Z" fill="url(#a)"/><path fill-rule="evenodd" clip-rule="evenodd" d="M9 4.083c1.657 0 3 1.326 3 2.962 0 1.635-1.343 2.96-3 2.96S6 8.68 6 7.046c0-1.636 1.334-2.962 3-2.962Z" fill="#6EB0C1"/><path fill-rule="evenodd" clip-rule="evenodd" d="M11.939 6.424 11 5.687l-.606.617L9.45 5.07 7 6.613l-.5-.555-.44.335a3.32 3.32 0 0 0-.06.652c0 1.65 1.342 2.96 3 2.96 1.656 0 2.998-1.31 2.998-2.96a2.484 2.484 0 0 0-.06-.621Z" fill="#5F9038"/><path fill-rule="evenodd" clip-rule="evenodd" d="M9.664 5.348c0 .306-.064.653-.562 1.347A.452.452 0 0 0 9 6.988c.028.442.993.645 1 1.016 0 .021-.029.03-.081.028-.39-.012-1.712-.594-1.919-.494L7.516 6.3l1.933-1.23.215.278Z" fill="#3E6429"/><path fill-rule="evenodd" clip-rule="evenodd" d="M8 5.07c.551 0 1 .447 1 .994 0 .183-.051.345-.133.497L8 8.031l-.857-1.47A.975.975 0 0 1 7 6.054a.99.99 0 0 1 1-.984Z" fill="#EDEDED"/><defs><linearGradient id="a" x1="8.552" y1="8.203" x2="12.15" y2="12.943" gradientUnits="userSpaceOnUse"><stop stop-color="#B2B3B3"/><stop offset=".264" stop-color="#858482"/><stop offset="1" stop-color="#41433D"/></linearGradient></defs></svg>
